X: 2
T: Richard Deasy's March
Z: ceolachan
S: https://thesession.org/tunes/5049#setting17385
R: barndance
M: 4/4
L: 1/8
K: Ador
c2 A>^G A2 B/c/d | eA^ce ab/a/ ge | d2 B>^A B2 G/=A/B/c/ | dGge de/d/ cB |c2 A>^G ABcd | ef g/f/e a2 b>a | ged^c d=fe<d | c2 A>^G A2 :|e2 a>b ag e/d/^c | e>^cAB =c2 B>c | dg f/g/a g>a b/a/g/f/ |[1 gedB G2 e>d | c2 A>^G A2 B/c/d | ef g/f/e a2 b>a | ged^c d2 =f/e/d | c2 A^G A2 :|[2 g>edB G3 B | c2 B>d cBce | d2 ^c>d efg<e | a2 g/e/^c d=fe<d | c2 A2 A2 |]
